X: 155
T:The Inimitable Reel
M:2/4
L:1/16
Z:abc by Bruce Osborne - bosborne@kos.net
K:G
D2|G2D2 E2DC|B,DGB d2cd|edcB cBAG|FGAB cDEF|!
G2D2 E2DC|B,DGB d2cd|edcB cBAG|FGAB G2:|!
|:D2|Bdde dBAG|Bdde b2g2|Bdde dBAG|FGAB c2BA|!
Bdde dBAG|Bdde b2g2|Bdde dBAG|FGAB G2:|!
